Newaita-dark/actions/22/kdenlive-align-left.svg

<svg height="22" viewBox="0 0 22 22" width="22" xmlns="http://www.w3.org/2000/svg"><g fill="#e0e0e0"><path d="m4.546875 3.808594h.910156c.25 0 .457031.207031.457031.457031v13.644531c0 .25-.207031.453125-.457031.453125h-.910156c-.25 0-.453125-.203125-.453125-.453125v-13.644531c0-.25.203125-.457031.453125-.457031zm0 0"/><path d="m16.828125 11.996094h-8.1875c-.5 0-.910156-.40625-.910156-.910156 0-.5.410156-.910157.910156-.910157h8.1875c.5 0 .910156.410157.910156.910157 0 .503906-.410156.910156-.910156.910156zm0 0"/><path d="m15.714844 5.296875-6.429688 6.433594c-.355468.355469-.933594.355469-1.289062 0-.355469-.355469-.355469-.933594 0-1.289063l6.433594-6.429687c.355468-.355469.929687-.355469 1.285156 0 .355468.355469.355468.929687 0 1.285156zm0 0"/><path d="m14.429688 18.164062-6.433594-6.433593c-.355469-.355469-.355469-.929688 0-1.285157.355468-.355468.933594-.355468 1.289062 0l6.429688 6.429688c.355468.355469.355468.933594 0 1.289062-.355469.355469-.929688.355469-1.285156 0zm0 0"/></g></svg>

<?xml version="1.0" encoding="UTF-8"?>
<svg xmlns="http://www.w3.org/2000/svg" xmlns:xlink="http://www.w3.org/1999/xlink" width="22px" height="22px" viewBox="0 0 22 22" version="1.1">
<g id="surface1">
<path style=" stroke:none;fill-rule:nonzero;fill:rgb(87.843138%,87.843138%,87.843138%);fill-opacity:1;" d="M 4.546875 3.808594 L 5.457031 3.808594 C 5.707031 3.808594 5.914062 4.015625 5.914062 4.265625 L 5.914062 17.910156 C 5.914062 18.160156 5.707031 18.363281 5.457031 18.363281 L 4.546875 18.363281 C 4.296875 18.363281 4.09375 18.160156 4.09375 17.910156 L 4.09375 4.265625 C 4.09375 4.015625 4.296875 3.808594 4.546875 3.808594 Z M 4.546875 3.808594 "/>
<path style=" stroke:none;fill-rule:nonzero;fill:rgb(87.843138%,87.843138%,87.843138%);fill-opacity:1;" d="M 16.828125 11.996094 L 8.640625 11.996094 C 8.140625 11.996094 7.730469 11.589844 7.730469 11.085938 C 7.730469 10.585938 8.140625 10.175781 8.640625 10.175781 L 16.828125 10.175781 C 17.328125 10.175781 17.738281 10.585938 17.738281 11.085938 C 17.738281 11.589844 17.328125 11.996094 16.828125 11.996094 Z M 16.828125 11.996094 "/>
<path style=" stroke:none;fill-rule:nonzero;fill:rgb(87.843138%,87.843138%,87.843138%);fill-opacity:1;" d="M 15.714844 5.296875 L 9.285156 11.730469 C 8.929688 12.085938 8.351562 12.085938 7.996094 11.730469 C 7.640625 11.375 7.640625 10.796875 7.996094 10.441406 L 14.429688 4.011719 C 14.785156 3.65625 15.359375 3.65625 15.714844 4.011719 C 16.070312 4.367188 16.070312 4.941406 15.714844 5.296875 Z M 15.714844 5.296875 "/>
<path style=" stroke:none;fill-rule:nonzero;fill:rgb(87.843138%,87.843138%,87.843138%);fill-opacity:1;" d="M 14.429688 18.164062 L 7.996094 11.730469 C 7.640625 11.375 7.640625 10.800781 7.996094 10.445312 C 8.351562 10.089844 8.929688 10.089844 9.285156 10.445312 L 15.714844 16.875 C 16.070312 17.230469 16.070312 17.808594 15.714844 18.164062 C 15.359375 18.519531 14.785156 18.519531 14.429688 18.164062 Z M 14.429688 18.164062 "/>
</g>
</svg>
